!!!COM: Scarlatti, Domenico
!!!CDT: 1685///-1757///
!!!OTL: Sonata in G Major, K.244, L.348
!!!SCT: K. 244
!!!SCT: L. 348
**kern	**kern	**dynam
*staff2	*staff1	*staff1/2
*Icemba	*Icemba	*Icemba
*>[A,A,B,B]	*>[A,A,B,B]	*>[A,A,B,B]
*>norep[A,B]	*>norep[A,B]	*>norep[A,B]
*>A	*>A	*>A
*clefF4	*clefG2	*clefG2
*k[f#c#g#d#a#]	*k[f#c#g#d#a#]	*k[f#c#g#d#a#]
*B:	*B:	*B:
*M3/8	*M3/8	*M3/8
*MM114	*MM114	*MM114
=1-	=1-	=1-
4.r	8r	.
.	(8b\L	p
.	8ff#\J	.
=2	=2	=2
8r	8dd#\L	.
(8B\L	8b\	.
8f#\J	8a#\J	.
=3	=3	=3
8d#\L	8b\L)	.
8B\	(8dd#\	.
8A#\J	8ee\J	.
=4	=4	=4
8B\L)	8dd#\L	.
(8d#\	8b\	.
8e\J	8gg#\J	.
=5	=5	=5
8d#\L	8ff#\L	.
8B\	8dd#\	.
8g#\J	8b\J)	.
=6	=6	=6
8f#\L	(8aa#\L	.
8d#\	8bb\	.
8B\J	8ff#\J	.
=7	=7	=7
.	eeq/	.
8A#\L	8ee\L	<
.	dd#q/LLL	.
.	eeq/JJJ	.
8B\)	8dd#\)	.
([8e\J	8gg#\J	.
=8	=8	=8
8e\L]	(8a#\L	.
8d#\)	8b\)	.
([8B\J	8dd#'\J	.
=9	=9	=9
8B\L]	(8e#/L	.
8A#\)	8f#/)	.
8F#'\J	8en'/J	.
=10	=10	=10
8B'\L	8d#'/L	mf
8d#'\	8f#'/	.
8B'\J	[8b^/J	.
=11	=11	=11
8F#'\L	16b\LL]	.
.	(16a#\	.
8A#'\	16cc#\	.
.	16b\J	.
8F#'\J	[8ee\J)	.
=12	=12	=12
8B'\L	(16ee\LL]	<
.	16dd#\	.
8d#'\	16ff#\	.
.	16ee\J	.
8B'\J	[8gg#\J	.
=13	=13	=13
(4e\	16gg#\LL]	.
.	16ff#\	.
.	16ee\	.
.	16dd#\	.
8e#\)	16cc#\	.
.	16b\JJ)	.
=14	=14	=14
.	(bq/	.
(8f#\L	(8.a#/L)	>
8F#\J)	.	.
.	16g#/k	.
8r	8f#/J)	.
*clefG2	*	*
=15	=15	=15
(8f#'/L	16r	.
.	(16cc#\LL	p
8f#'/	16a#\	.
.	16b\	.
8f#'/J	16cc#\	.
.	16dd#\JJ	.
=16	=16	=16
8e#'/ 8g#'/L	8cc#'\L	.
8e#'/ 8g#'/	8gg#'\	.
8e#'/) 8g#'/J	8cc#'\J)	.
=17	=17	=17
(8f#'/L	16r	.
.	(16cc#\LL	.
8f#'/	16a#\	.
.	16b\	.
8f#'/J	16cc#\	.
.	16dd#\JJ	.
=18	=18	=18
8e#'/ 8g#'/L	8cc#'\L	.
8e#'/ 8g#'/	8gg#'\	.
8e#'/) 8g#'/J	8cc#'\J)	.
=19	=19	=19
(8f#/ 8a#/L	16r	.
.	(16cc#\LL	mf
8f#'/	16a#\	.
.	16b#\	.
8f#'/ 8a#'/J	16cc#\	.
.	16dd#\JJ	.
=20	=20	=20
8e#'/ 8a#'/L	8cc#'\L	.
8e#'/ 8a#'/	8aa#'\	.
8e#'/) 8a#'/J	8cc#'\J)	.
=21	=21	=21
(8f#'/ 8a#'/L	16r	.
.	(16cc#\LL	p
8f#'/	16a#\	.
.	16b#\	.
8f#'/ 8a#'/J	16cc#\	.
.	16dd#\JJ	.
=22	=22	=22
8e#'/ 8a#'/L	8cc#'\L	.
8e#'/ 8a#'/	8aa#'\	.
8e#'/) 8a#'/J	8cc#'\J)	.
=23	=23	=23
(8e#'/ 8g#'/ 8b'/L	16r	.
.	(16ee#\LL	.
8e#'/ 8g#'/ 8b'/	16cc##\	.
.	16dd#\	.
8e#'/ 8g#'/ 8b'/J	16ee#\	.
.	16ff#\JJ	.
=24	=24	=24
8e#'/ 8g#'/ 8b'/L	8ee#'\L	.
8e#'/ 8g#'/ 8b'/	8bb'\	.
8e#'/) 8g#'/ 8b'/J	8gg#'\J)	.
=25	=25	=25
(8d#'/ 8g#'/ 8b'/L	16r	.
.	(16ee#\LL	.
8d#'/ 8g#'/ 8b'/	16cc##\	.
.	16dd#\	.
8d#'/ 8g#'/ 8b'/J	16ee#\	.
.	16ff#\JJ	.
=26	=26	=26
8d#'/ 8g#'/ 8b'/L	8ee#'\L	.
8d#'/ 8g#'/ 8b'/	8bb'\	.
8d#'/) 8g#'/ 8b'/J	8gg#'\J)	.
=27	=27	=27
(8c##/ 8g#/ 8a#/L	16r	.
.	(16ee#\LL	.
8c##'/ 8g#'/ 8a#'/	16cc##\	.
.	16dd#\	.
8c##'/ 8g#'/ 8a#'/J	16ee#\	.
.	16ff#\JJ	.
=28	=28	=28
8c##'/ 8g#'/ 8a#'/L	8ee#'\L	.
8c##'/ 8g#'/ 8a#'/	8bb'\	.
8c##'/) 8g#'/ 8a#'/J	8gg#'\J)	.
=29	=29	=29
(8c#'/ 8g#'/ 8b'/L	16r	.
.	(16gg#\LL	<
8c#'/ 8g#'/ 8b'/	16ee#\	.
.	16ff#\	.
8c#'/ 8g#'/ 8b'/J	16gg#\	.
.	16aa#\JJ	.
=30	=30	=30
8c#'/ 8g#'/ 8b'/L	8gg#'\L	.
8c#'/ 8g#'/ 8b'/	8bb'\	.
8c#'/) 8g#'/ 8b'/J	8gg#'\J)	.
=31	=31	=31
(8c#'/ 8f#'/ 8an'/L	16r	.
.	(16aan\LL	.
8c#'/ 8f#'/ 8a'/	16ff#\	.
.	16gg#\	.
8c#'/ 8f#'/ 8a'/J	16aa\	.
.	16bb\JJ	.
=32	=32	=32
8c#'/ 8f#'/ 8an'/L	8aan'\L	.
8c#'/ 8f#'/ 8a'/	8ccc#'\	.
8c#'/) 8f#'/ 8a'/J	8aa'\J)	.
=33	=33	=33
(8B'/ 8e'/ 8gn'/L	16r	.
.	(16ggn\LL	.
8B'/ 8e'/ 8g'/	16ee\	.
.	16ff#\	.
8B'/ 8e'/ 8g'/J	16gg\	.
.	16aan\JJ	.
=34	=34	=34
8B'/ 8e'/ 8gn'/L	8ggn'\L	.
8B'/ 8e'/ 8g'/	8bb'\	.
8B'/) 8e'/ 8g'/J	8gg'\J)	.
=35	=35	=35
(8An'/ 8c#'/ 8f#'/L	16r	.
.	16ff#'\LL	mf
8A'/ 8c#'/ 8f#'/	(16ff#\	.
.	16cc#\	.
8A'/ 8c#'/ 8f#'/J	16aan\	.
.	16gg#\JJ)	.
=36	=36	=36
8An'/ 8c#'/ 8f#'/L	(16gg#\LL	.
.	16ff#\)	.
8A'/ 8c#'/ 8f#'/	(16ff#\	.
.	16ee\)	.
8A'/) 8c#'/ 8f#'/J	(16ee\	.
.	16ddn\JJ)	.
*clefF4	*	*
=37	=37	=37
8B'\ (8dn'\L	(16ddn\LL	.
.	16cc#\)	.
8B'\ 8d'\)	(16cc#\	.
.	16b\)	.
8C#'\ 8c#'\J	(16b\	.
.	16an\JJ)	.
=38	=38	=38
*^	*	*
8Dn/L	(4.Dn\	(16an/LL	.
.	.	(16g#/)	.
8F#/	.	16g#/	.
.	.	16f#/	.
8B/J	.	16e#/	.
.	.	16f#/JJ)	.
*v	*v	*	*
=39	=39	=39
8.C#\ 8.c#\L)	(8f#/L	.
.	16e#/Jk)	p
16c#\L	16r	.
16dn\	8r	.
16B\JJ	.	.
*clefG2	*	*
=40	=40	=40
16e#/LL	16r	.
16c#/	(16g#/	<
16f#/	8an'/L)	.
16c#/	.	.
16g#/	8b'/J	.
16c#/JJ	.	.
=41	=41	=41
16an/LL	8cc#'\L	.
16c#/	.	.
16b/	8dd#'\	.
16c#/	.	.
16cc#/	8ee#'\J	.
16c#/JJ	.	.
=42	=42	=42
16ddn/LL	8ff#'\L	.
16c#/	.	.
16cc#/	8ee#'\	.
16c#/	.	.
16dd/	8ff#'\J	.
16c#/JJ	.	.
=43	=43	=43
*^	*	*
8cc#/	8.c#\L	(16gg#\LL	f
.	.	16ee#\J	.
4r	.	8cc#\J)	p
.	(16c#\L	.	.
.	16dn\	8r	.
.	16B\JJ	.	.
*v	*v	*	*
=44	=44	=44
16e#/LL	16r	.
16c#/	(16g#/	<
16f#/	8an'/L)	.
16c#/	.	.
16g#/	8b'/J	.
16c#/JJ	.	.
=45	=45	=45
16an/LL	8cc#'\L	.
16c#/	.	.
16b/	8dd#'\	.
16c#/	.	.
16cc#/	8ee#'\J	.
16c#/JJ	.	.
=46	=46	=46
16ddn/LL	8ff#'\L	.
16c#/	.	.
16cc#/	8ee#'\	.
16c#/	.	.
16dd/	8ff#'\J	.
16c#/JJ)	.	.
=47	=47	=47
*^	*	*
8cc#/	8.c#\L	(16gg#\LL	f
.	.	16ee#\J	.
4r	.	8cc#\J)	.
.	16b\L	.	.
.	16a#\	8r	.
.	16g#\JJ	.	.
*v	*v	*	*
=48	=48	=48
8.f#/L	16r	.
.	16a#'/ 16cc#'/	p
.	(4a#/ [4cc#/	.
16e#/L	.	.
16d#/	.	.
16c#/JJ	.	.
*clefF4	*	*
=49	=49	=49
16B\LL	16a#\) 16cc#\LL]	.
16An\	16b'\ 16dd#'\JJ	.
16G#\	[4b\ [4dd#\	.
16F#\	.	.
16E#\	.	.
16D#\JJ	.	.
=50	=50	=50
*	*^	*
16C#/LL	4r	16b\] 16dd#\LL]	.
16BB/	.	16b'\ 16ee#'\J	.
16AA#/	.	8b'\ 8ee#'\	.
16GG#/J	.	.	.
8FF#'/J	(16ff#/LL	8a#\J	f
.	16cc#/JJ	.	.
*	*v	*v	*
=51	=51	=51
(8BB/L	16dd#/LL	.
.	16b/	.
8C#/)	16a#/	.
.	16g#/	.
8CC#'/J	16f#/	.
.	16e#/JJ)	.
=52	=52	=52
(8.f#\L	16r	.
.	16a#'/ 16cc#'/	p
.	[4a#/ [4cc#/	.
16e#\L	.	.
16d#\	.	.
16c#\JJ	.	.
=53	=53	=53
16B\LL	16a#\] 16cc#\LL]	.
16A#\	16b'\ 16dd#'\JJ	.
16G#\	[4b\ [4dd#\	.
16F#\	.	.
16E#\	.	.
16D#\JJ	.	.
=54	=54	=54
*	*^	*
16C#/LL	4r	16b\] 16dd#\LL]	.
16BB/	.	16b'\ 16ee#'\J	.
16AA#/	.	8b'\ 8ee#'\	.
16GG#/J	.	.	.
8FF#'/J)	(16ff#/LL	8a#\J	f
.	16cc#/JJ	.	.
*	*v	*v	*
=55	=55	=55
(8BB/L	16dd#/LL	.
.	16b/	.
8C#/)	16a#/	.
.	16g#/	.
8CC#'/J	16f#/	.
.	16e#/JJ	.
=56	=56	=56
(8F#\L	16f#\LL)	.
.	(16ff#\	.
8G#\	16aa#\	.
.	16gg#\)	.
8A#\J	(16gg#\	.
.	16ff#\JJ	.
=57	=57	=57
8B\L	16ee#\LL	.
.	16dd#\)	.
8c#\)	(16dd#\	.
.	16cc#\)	.
8C#'\J	(16cc#\	.
.	16b\JJ)	.
=58	=58	=58
(8F#\L	(16b/LL	.
.	16a#/)	.
8G#\	(16a#/	.
.	16g#/	.
8A#\J	16f#/	.
.	16g#/JJ	.
=59	=59	=59
8B\L	16a#/LL	.
.	16b/	.
8c#\)	16a#/	.
.	16g#/	.
8C#'\J	16f#/	.
.	16e#/JJ	.
=60	=60	=60
(8F#\L	16f#\LL)	.
.	(16ff#\	p
8G#\	16aa#\	.
.	16gg#\)	.
8A#\J	(16gg#\	.
.	16ff#\JJ	.
=61	=61	=61
8B\L	16ee#\LL	.
.	16dd#\)	.
8c#\)	(16dd#\	.
.	16cc#\)	.
8C#'\J	(16cc#\	.
.	16b\JJ)	.
=62	=62	=62
(8F#\L	(16b/LL	.
.	16a#/)	.
8G#\	(16a#/	.
.	16g#/	.
8A#\J	16f#/	.
.	16g#/JJ	.
=63	=63	=63
8B\L	16a#/LL	.
.	16b/	.
8c#\)	16a#/	.
.	16g#/	.
8C#'\J	16f#/	.
.	16e#/JJ	.
=64	=64	=64
4.F#\	4.f#/)	.
=65:|!|:	=65:|!|:	=65:|!|:
*>B	*>B	*>B
*clefG2	*	*
(8f#'/L	8r	.
8f#'/	(8.a#/L	p
8f#'/J	.	.
.	16b/Jk	.
=66	=66	=66
8e#'/ 8g#'/L	8cc#'\L	>
8e#'/ 8g#'/	8cc#'\	.
8e#'/) 8g#'/J	8cc#'\J)	.
=67	=67	=67
(8f#'/L	8r	.
8f#'/	(8.a#/L	.
8f#'/J	.	.
.	16b/Jk	.
=68	=68	=68
8e#'/ 8g#'/L	8cc#'\L	.
8e#'/ 8g#'/	8cc#'\	.
8e#'/) 8g#'/J	8cc#'\J)	.
=69	=69	=69
*k[]	*k[]	*k[]
(8f'/ 8a-'/ 8b'/L	8r	.
8f'/ 8a-'/ 8b'/	(8.dd\L	<
8f'/ 8a-'/ 8b'/J	.	.
.	16ee-\Jk	.
=70	=70	=70
8e-'/ 8a-'/ 8b'/L	8ff'\L	.
8e-'/ 8a-'/ 8b'/	8ff'\	.
8e-'/) 8a-'/ 8b'/J	8ff\J)	.
=71	=71	=71
(8e-'/ 8a-'/ 8b'/L	8r	.
8e-'/ 8a-'/ 8b'/	(8.dd\L	.
8e-'/ 8a-'/ 8b'/J	.	.
.	16ee-\Jk	.
=72	=72	=72
8d'/ 8a-'/ 8b-'/L	8ff'\L	.
8d'/ 8a-'/ 8b-'/	8ff'\	.
8d'/) 8a-'/ 8b-'/J	8ff'\J)	.
=73	=73	=73
(8d-'/ 8f'/ 8b-'/L	8r	.
8d-'/ 8f'/ 8b-'/	(8.ff\L	.
8d-'/ 8f'/ 8b-'/J	.	.
.	16gg\Jk	.
=74	=74	=74
8c'/ 8f'/ 8a-'/L	8aa-'\L	.
8c'/ 8f'/ 8a-'/	8aa-'\	.
8c'/) 8f'/ 8a-'/J	8aa-'\J)	.
=75	=75	=75
(8d-'/ 8f'/ 8b-'/L	8r	.
8d-'/ 8f'/ 8b-'/	(8.ff\L	.
8d-'/ 8f'/ 8b-'/J	.	.
.	16gg\Jk	.
=76	=76	=76
8c'/ 8f'/ 8a-'/L	8aa-'\L	.
8c'/ 8f'/ 8a-'/	8aa-'\	.
8c'/) 8f'/ 8a-'/J	8aa-\J)	.
=77	=77	=77
8B-/ 8d-/ 8e-/ 8g/L	8r	.
8B-/ 8d-/ 8e-/ 8g/	(8.aa-\L	mf
8B-/ 8d-/ 8e-/ 8g/J	.	.
.	16bb-\Jk	.
=78	=78	=78
8A-/ 8e-/ 8a-/L	8ccc'\L	.
8A-/ 8e-/ 8a-/	8ccc'\	.
8A-/ 8e-/ 8a-/J	8ccc'\J)	.
=79	=79	=79
8B-/ 8d-/ 8e-/ 8g/L	8r	.
8B-/ 8d-/ 8e-/ 8g/	(8.aa-\L	.
8B-/ 8d-/ 8e-/ 8g/J	.	.
.	16bb-\Jk	.
=80	=80	=80
8A-/ 8c/ 8g/L	8ccc'\L	.
8A-/ 8c/ 8g/	8ccc'\	.
8A-/ 8c/ 8g/J	8ccc'\J)	.
=81	=81	=81
8A-/ 8c/ 8f/L	8r	.
8A-/ 8c/ 8f/	(8.cc\L	p
8A-/ 8c/ 8f/J	.	.
.	16dd\Jk	.
*clefF4	*	*
=82	=82	=82
8G\ 8c\ 8e-\L	8ee-'\L	.
8G\ 8c\ 8e-\	8ee-'\	.
8G\ 8c\ 8e-\J	8ee-'\J)	.
=83	=83	=83
8A-\ 8c\ 8f\L	8r	.
8A-\ 8c\ 8f\	(8.cc\L	.
8A-\ 8c\ 8f\J	.	.
.	16dd\Jk	.
=84	=84	=84
8G\ 8B-\ 8en\L	8een'\L	.
8G\ 8B-\ 8e\	8ee'\	.
8G\ 8B-\ 8e\J	8ee'\J)	<
=85	=85	=85
8F\ 8A\ 8e\L	8r	.
8F\ 8A\ 8d\	(8.ee\L	.
8F\ 8A\ 8d\J	.	.
.	16ff\Jk	.
=86	=86	=86
8E\ 8G\ 8d\L	8gg'\L	.
8E\ 8G\ 8c#\	8gg'\	.
8E\ 8G\ 8c#\J	8gg'\J)	.
=87	=87	=87
8D\ 8G\ 8B-\L	8r	.
8D\ 8G\ 8B-\	(8.ee\L	.
8D\ 8G\ 8B-\J	.	.
.	16ff\Jk	.
=88	=88	=88
8C#\ 8E\ 8G\L	8gg'\L	.
8C#\ 8E\ 8G\	8gg'\	.
8C#\ 8E\ 8G\J	8gg'\J)	.
=89	=89	=89
8BB\ 8E\ 8G\L	8r	.
8BB\ 8E\ 8G\	(8.ee\L	.
8BB\ 8E\ 8G\J	.	.
.	16ff#\Jk	.
=90	=90	=90
8BB\ 8E\ 8G\L	8gg'\L)	mf
8BB\ 8E\ 8G\	8aa'\	.
8BB\ 8E\ 8G\J	8bb'\J	.
=91	=91	=91
8AA#\ 8E\ 8G\L	(16aa\LL	.
.	16gg\	.
8AA#\ 8E\ 8G\	16ff#\	.
.	16ee\	.
8AA#\ 8E\ 8G\J	16dd#\	.
.	16ee\JJ)	.
=92	=92	=92
.	(eeq/	.
(8BB\L	4.dd#\)	>
8B\)	.	.
8BB'\J	.	.
=93	=93	=93
*clefG2	*k[f#c#]	*k[f#c#]
*k[f#c#]	*	*
(8b'/L	16r	.
.	(16ff#\LL	p
8b'/	16dd#\	.
.	16ee\	.
8b'/J	16ff#\	.
.	16gg\JJ	.
=94	=94	=94
8a'/ 8ccn'/L	8ff#'\L	.
8a'/ 8cc'/	8cccn'\	.
8a'/) 8cc'/J	8aa'\J)	.
=95	=95	=95
(8a'/ 8ccn'/L	16r	.
.	(16ff#\LL	.
8a'/ 8cc'/	16dd#\	.
.	16ee\	.
8a'/ 8cc'/J	16ff#\	.
.	16gg\JJ	.
=96	=96	=96
8g'/ 8b'/L	8ee'\L	.
8g'/ 8b'/	8bb'\	.
8g'/) 8b'/J	8gg\J)	.
=97	=97	=97
(8g'/ 8b'/L	16r	.
.	(16ee\LL	<
8g'/	16b\	.
.	16cc#\	.
8g'/ 8b'/J	16dd\	.
.	16ee\JJ	.
=98	=98	=98
8f#'/ 8b'/L	8dd'\L	.
8f#'/ 8b'/	8bb'\	.
8f#'/) 8b'/J	8dd'\J)	.
=99	=99	=99
(8f#'/ 8b'/L	16r	.
.	(16dd\LL	.
8f#'/	16b\	.
.	16cc#\	.
8f#'/ 8b'/J	16dd\	.
.	16ee\JJ	.
=100	=100	=100
8e/ 8b/L	8cc#'\L	.
8e'/ 8b'/	8bb'\	.
8e'/) 8b'/J	8cc#'\J)	.
=101	=101	=101
(8e'/ 8a#'/L	16r	.
.	(16cc#\LL	.
8e'/	16a#\	.
.	16b\	.
8e'/ 8a#'/J	16cc#\	.
.	16dd\JJ	.
=102	=102	=102
8d'/ 8f#'/L	8b'\L	.
8d'/ 8f#'/	8bb'\	.
8d'/) 8f#'/J	8b'\J)	.
*clefF4	*	*
=103	=103	=103
8D'\ 8F#'\ 8B'\L	16r	.
.	16ff#\LL	mf
8D'\ 8F#'\ 8B'\	(16ff#\	.
.	16bb\)	.
8D'\ 8F#'\ 8B'\J	(16bb\	.
.	16aa\JJ)	.
=104	=104	=104
8E'\ 8G'\ 8B'\L	(16aa\LL	.
.	16gg\)	.
8E'\ 8G'\ 8B'\	(16gg\	.
.	16ff#\)	.
8F#'\J	(16ff#\	.
.	16ee\JJ)	.
=105	=105	=105
*^	*	*
(8G/L	4.G\	(16ee\LL	.
.	.	16dd\)	.
8B/	.	(16dd\	.
.	.	16cc#\)	.
8e/J)	.	(16cc#\	.
.	.	16dd\JJ)	.
*v	*v	*	*
=106	=106	=106
8.F#\ 8.f#\L	(8b/L	>
.	16a#/Jk)	p
16F#\L	16r	.
16G\	8r	.
16E\JJ	.	.
=107	=107	=107
16A#\LL	16r	.
16F#\	(16c#/	<
16B\	8d'/L)	.
16F#\	.	.
16c#\	8e'/J	.
16F#\JJ	.	.
=108	=108	=108
16d\LL	8f#'/L	.
16F#\	.	.
16e\	8g#'/	.
16F#\	.	.
16f#\	8a#'/J	.
16F#\JJ	.	.
=109	=109	=109
16gn\LL	8b/L	.
16F#\	.	.
16f#\	8a#'/	.
16F#\	.	.
16g\	8b'/J	.
16F#\JJ	.	.
=110	=110	=110
*^	*	*
8f#/	8.F#\L	(16cc#/LL	f
.	.	16a#/J	.
4r	.	8f#/J)	p
.	16F#\L	.	.
.	16G\	8r	.
.	16E\JJ	.	.
*v	*v	*	*
=111	=111	=111
16A#\LL	16r	.
16F#\	(16c#/	<
16B\	8d'/L)	.
16F#\	.	.
16c#\	8e'/J	.
16F#\JJ	.	.
=112	=112	=112
16d\LL	8f#'/L	.
16F#\	.	.
16e\	8g#'/	.
16F#\	.	.
16f#\	8a#'/J	.
16F#\JJ	.	.
=113	=113	=113
16gn\LL	8b'/L	.
16F#\	.	.
16f#\	8a#'/	.
16F#\	.	.
16g\	8b'/J	.
16F#\JJ	.	.
=114	=114	=114
*^	*	*
8f#/	8.F#\L	(16cc#/LL	f
.	.	16a#/J	.
4r	.	8f#/J)	>
.	(16e\L	.	.
.	16d#\	8r	.
.	16c#\JJ	.	.
*v	*v	*	*
*clefG2	*	*
=115	=115	=115
*k[f#c#g#d#a#]	*k[f#c#g#d#a#]	*k[f#c#g#d#a#]
8.B/) 8.b/L	16r	.
.	16dd#'\ 16ff#'\	p
.	[4dd#\ [4ff#\	.
(16a#/L	.	.
16g#/	.	.
16f#/JJ	.	.
=116	=116	=116
16e/LL	16dd#\] 16ff#\LL]	.
16d#/JJ	16ee'\ 16gg#'\JJ	.
*clefF4	*	*
16c#\LL	[4ee\ [4gg#\	.
16B\	.	.
16A#\	.	.
16G#\JJ	.	.
=117	=117	=117
*	*^	*
16F#\LL	4r	16ee\] 16gg#\LL]	.
16E\	.	16cc#'\ 16aa#'\J	.
16D#\	.	8cc#'\ 8aa#'\	.
16C#\J	.	.	.
8BB'\J)	(16bb/LL	8dd#\J	f
.	16ff#/JJ	.	.
*	*v	*v	*
=118	=118	=118
(8E\L	16gg#\LL	.
.	16ee\	.
8F#\)	16dd#\	.
.	16cc#\	.
8FF#'\J	16b\	.
.	16a#\JJ)	.
*clefG2	*	*
=119	=119	=119
(8.b/L	16r	.
.	16dd#'\ 16ff#'\	p
.	[4dd#\ [4ff#\	.
16a#/L	.	.
16g#/	.	.
16f#/JJ	.	.
=120	=120	=120
16e/LL	16dd#\] 16ff#\LL]	.
16d#/JJ	16ee'\ 16gg#'\JJ	.
*clefF4	*	*
16c#\LL	[4ee\ [4gg#\	.
16B\	.	.
16A#\	.	.
16G#\JJ	.	.
=121	=121	=121
*	*^	*
16F#\LL	4r	16ee\] 16gg#\LL]	.
16E\	.	16cc#'\ 16aa#'\J	.
16D#\	.	8cc#'\ 8aa#'\	.
16C#\J	.	.	.
8BB\J)	(16bb/LL	8dd#\J	f
.	16ff#/JJ	.	.
*	*v	*v	*
=122	=122	=122
(8E/L	16gg#\LL	.
.	16ee\	.
8F#/)	16dd#\	.
.	16cc#\	.
8FF#'/J	16b\	.
.	16a#\JJ	.
=123	=123	=123
(8BB/L	16b\LL	.
.	16bb\)	.
8C#/	(16bb\	.
.	16aa#\)	.
8D#/J	(16aa#\	.
.	16gg#\JJ)	.
=124	=124	=124
8E/L	(16gg#\LL	.
.	16ff#\)	.
8F#/)	(16ff#\	.
.	16ee\)	.
8FF#'/J	(16ee\	.
.	16dd#\JJ)	.
=125	=125	=125
(8BB/L	(16dd#\LL	>
.	16cc#\)	.
8C#/	(16cc#\	.
.	16b\)	.
8D#/J	(16b\	.
.	16a#\JJ)	.
=126	=126	=126
8E/L	(16a#/LL	.
.	16g#/)	.
8F#/)	(16g#/	.
.	16f#/)	.
8FF#'/J	(16f#/	.
.	16e/JJ)	.
=127	=127	=127
(8BB/L	(16e/LL	p
.	16d#/)	.
8C#/	(16d#/	.
.	16c#/	.
8D#/J	16B/	.
.	16c#/JJ	.
=128	=128	=128
8E/L	16d#/LL	.
.	16e/	.
8F#/)	16d#/	.
.	16c#/	.
8FF#'/J	16B/	.
.	16A#/JJ	.
=129	=129	=129
4.BB/	4.B/)	.
==:|!	==:|!	==:|!
*-	*-	*-
!!!ENC: Craig Stuart Sapp
!!!END: 2004/11/03/
